X:1
T:An die Laute
T:An die Laute
T:Franz Schubert
C:Franz Schubert
L:1/8
M:6/8
K:D
V:1 treble-8 nm="Classical Guitar" snm="Guit."
V:1
 A2 A A>BA | A2 d f2 d | F2 F F>GF | F2 B d2 B | ^G2 G AGA | c3- cd^G | A2 z4 | z6 | B2 B B>=cB | %9
 d2 =c B2 A | B2 B B>^cB | d2 =c B2 A | B2 B Bed | ^c>Bc d3 | cBB d>BB/G/ | E2 A D2 z |] %16

